icons/.icons/Papirus-Light/24x24/panel/thunderbird-panel.svg

<svg xmlns="http://www.w3.org/2000/svg" width="24" height="24" version="1.1">
 <defs>
  <style id="current-color-scheme" type="text/css">
   .ColorScheme-Text { color:#444444; } .ColorScheme-Highlight { color:#4285f4; }
  </style>
 </defs>
 <path style="opacity:0.3;fill:currentColor" class="ColorScheme-Text" d="m 13.818359,9.3105767 c -0.567804,0.231762 -1.10149,0.484375 -1.824218,0.484375 -0.02606,3.7e-4 -0.05212,-2.83e-4 -0.07813,-0.0019 -1.291809,-0.101242 -1.894597,-0.02099 -2.8378858,0.8984343 -0.075805,0.07372 -0.1628279,0.135181 -0.2578125,0.181641 -0.059746,0.02922 -0.1162601,0.05116 -0.1738281,0.07617 -0.065561,0.04068 -0.1358549,0.07308 -0.2089844,0.09766 l 1.5566406,1.747995 4.9140622,-1.544922 c 0.04003,-0.147765 0.07825,-0.316126 0.08399,-0.300781 -0.2267,-0.922366 -0.496956,-1.3025783 -1.173829,-1.6386723 z M 8.1445314,11.216827 c -0.2087725,0.439056 -0.6997417,0.675018 -1.1738281,0.537109 -4e-5,0.262589 -0.072515,0.548361 -0.00977,0.783203 0.1026887,0.390092 -0.039027,0.803687 -0.359375,1.048829 0.1915064,0.669017 0.4381609,1.310166 0.7617187,1.921874 l 6.205078,1.902344 c 0.03813,-0.04568 0.07765,-0.08161 0.115235,-0.128906 0.389406,-0.490041 0.754454,-1.068637 1.054687,-1.724609 -0.0088,0.0042 -0.0247,0.01162 -0.0332,0.01563 -0.09192,0.04338 -0.167699,0.07808 -0.224609,0.103515 -0.02846,0.01272 -0.05156,0.02165 -0.07422,0.03125 -0.01133,0.0048 -0.02051,0.01028 -0.03906,0.01758 -0.0093,0.0037 -0.01904,0.0067 -0.04492,0.01563 -0.01294,0.0045 -0.06611,0.01945 -0.06641,0.01953 -1.5e-4,4e-5 -0.08975,0.02147 -0.08984,0.02148 -9.2e-5,10e-5 -0.257733,0.0053 -0.289063,0.0059 -0.774371,-0.09183 -1.15041,-0.995198 -0.669922,-1.609375 0.0027,-0.0034 0.01097,-0.01603 0.01367,-0.01953 0.243167,-0.313175 0.751662,-1.042657 1.158203,-1.765625 0.112572,-0.200191 0.181438,-0.37224 0.271485,-0.560547 L 9.9941404,13.295 Z"/>
 <path style="fill:currentColor" class="ColorScheme-Text" d="M 10.396657,3.7953378 C 9.1918974,3.8274925 8.537105,4.9221089 8.0294693,5.9183847 7.8442639,6.0118253 7.6561045,6.0941471 7.4728287,6.1957284 6.4781493,6.8644663 5.6625594,7.7918577 5.0333756,8.8051034 4.4799235,9.7820087 4.1443692,10.867325 4.0197037,11.980885 c -0.074085,1.128995 0.055332,2.279708 0.4804688,3.335937 0.3295182,0.928332 0.9097504,1.947786 1.6523437,2.583262 0.9858749,0.657857 1.7698739,1.133727 2.8457031,1.087891 -2.2398416,-1.791482 -3.4216127,-3.939763 -3.7949218,-6.468027 -0.011789,-0.189405 -0.035038,-0.394238 0.033203,-0.34375 0.2552755,0.40459 0.3146666,0.389425 0.7578125,0.61914 C 5.6122779,11.365556 6.1224476,9.7749237 6.7462662,8.6136972 6.8243137,8.5243468 6.9090674,8.438623 6.99236,8.3519784 l 0.039063,0.00586 c 0.014022,0.22327 0.040433,0.448037 0.066406,0.6640623 -0.00481,0.104082 0.061596,0.281849 0.082031,0.396485 -0.015374,0.04023 -0.098765,0.280852 -0.1308594,0.5820313 -0.01935,0.119285 -0.020024,0.236506 -0.00195,0.351562 0.00325,0.02268 0.00503,0.0441 0.00977,0.06641 0.00971,0.04048 0.020652,0.08136 0.037109,0.121094 0.034751,0.09384 0.081037,0.182539 0.1562429,0.255859 0.027823,-0.125425 0.084584,-0.226611 0.1621094,-0.310547 0.019359,-0.02096 0.048626,-0.03376 0.070312,-0.05273 0.070254,-0.05953 0.1435983,-0.116957 0.2226563,-0.160156 0.015562,-0.0085 0.015822,-0.0058 0.03125,-0.01367 C 7.9328571,10.158014 8.126087,10.09613 8.1271252,10.09613 L 8.1427502,10.0805 C 8.2239922,10.04742 8.3059378,10.01176 8.3810319,9.9750307 9.5082167,8.8763611 10.574187,8.6840479 11.994313,8.7953428 c 0.781587,0 1.226582,-0.2030038 2,-0.5507812 1.186546,0.4960506 1.695811,1.2706931 2,2.5507814 0.114559,0.962125 -1.431114,3.269495 -2,3.998047 -6.8e-5,1.1e-5 -0.0039,0.002 -0.0039,0.002 1.2e-5,0 0.0039,-10e-6 0.0039,0 0.01173,0.0016 1.717869,-0.760302 2.398438,-1.40625 -0.485567,3.754421 -3.186124,6.081862 -4.398438,6.606168 0.936965,0.06306 2.220246,-0.52096 3.103516,-1.060547 -0.403265,0.43212 -0.834566,0.89984 -1.103516,1.060547 1.054554,-0.295286 2.053274,-0.403114 2.71875,-0.888672 -2.49e-4,0 0.539372,-0.493939 1.103516,-1.137418 0.07505,-0.08561 0.203986,-0.203291 0.28125,-0.300781 0.04803,-0.06061 0.09368,-0.122701 0.140625,-0.183594 0.0083,-0.01001 0.01744,-0.02109 0.02539,-0.03125 1.187377,-1.452539 1.765529,-3.257976 1.722657,-4.894531 C 19.994834,10.57514 19.188693,8.8537837 17.83611,7.4301034 16.857937,6.4005143 15.746727,5.7690328 14.746266,5.4281503 13.710946,5.1308501 12.492782,4.980028 11.457204,5.0375253 c -0.103696,0.00127 -0.391212,0.00968 -0.783203,0.042969 -0.04584,-0.086358 0.0112,-0.4068056 0.123046,-0.4863281 -0.245161,0.02295 -0.471026,0.3418588 -0.679687,0.5625 -0.03512,0.00685 -0.07117,0.013798 -0.103516,0.021484 C 10.201774,4.8530157 10.393386,4.4872576 10.61736,4.1957284 9.9234998,4.3252483 9.6207001,4.8707809 9.2814225,5.3734628 9.1835047,5.4056973 9.0884546,5.4448302 8.99236,5.4808847 9.2440284,4.7546971 9.7172811,4.3572467 10.396657,3.7953378 Z M 8.5978287,7.9955375 c 0.1941057,-0.00375 0.3693938,0.029297 0.3710938,0.029297 0.0033,0 0.087553,0.3400574 -0.072266,0.6308593 C 8.7368383,8.9476053 8.3646679,9.0644057 8.1583756,8.9545219 7.947551,8.8446393 7.9482996,8.4769026 8.1115006,8.1849906 8.1902764,8.0390347 8.4037231,7.9992834 8.5978287,7.9955375 Z"/>
 <path style="fill:none" d="M 10.396657,3.7953378 C 9.1918974,3.8274925 8.537105,4.9221089 8.0294693,5.9183847 7.8442639,6.0118253 7.6561045,6.0941471 7.4728287,6.1957284 6.4781493,6.8644663 5.6625594,7.7918577 5.0333756,8.8051034 4.4799235,9.7820087 4.1443692,10.867325 4.0197037,11.980885 c -0.074085,1.128995 0.055332,2.279708 0.4804688,3.335937 0.3295182,0.928332 0.9097504,1.747336 1.6523437,2.382813 0.9858749,0.657857 1.7698739,1.133727 2.8457031,1.087891 -0.3999112,-0.231221 -1.4854217,-0.879999 -1.7988281,-2.59961 0.3327191,0.651643 1.3440906,1.409056 1.7949219,1.607422 0,0 -0.3720883,-0.610712 -0.3671875,-1.048828 0.00346,-0.309635 0.1298692,-0.646218 0.1054687,-0.951172 L 5.6993912,14.99651 C 5.4463092,14.195461 5.295563,13.366936 5.2032975,12.519948 5.1915085,12.330543 5.1682595,12.12571 5.2365005,12.176198 5.491776,12.580788 5.5511671,12.565623 5.994313,12.795338 5.6122779,11.365556 6.1224476,9.7749237 6.7462662,8.6136972 6.8243137,8.5243468 6.9090674,8.438623 6.99236,8.3519784 l 0.039063,0.00586 c 0.014022,0.22327 0.040433,0.448037 0.066406,0.6640623 -0.00481,0.104082 0.061596,0.281849 0.082031,0.396485 -0.015374,0.04023 -0.098765,0.280852 -0.1308594,0.5820313 -0.01935,0.119285 -0.020024,0.236506 -0.00195,0.351562 0.00325,0.02268 0.00503,0.0441 0.00977,0.06641 0.00971,0.04048 0.020652,0.08136 0.037109,0.121094 0.034751,0.09384 0.081037,0.182539 0.1562429,0.255859 0.027823,-0.125425 0.084584,-0.226611 0.1621094,-0.310547 0.019359,-0.02096 0.048626,-0.03376 0.070312,-0.05273 0.070254,-0.05953 0.1435983,-0.116957 0.2226563,-0.160156 0.015562,-0.0085 0.015822,-0.0058 0.03125,-0.01367 C 7.9328571,10.158014 8.126087,10.09613 8.1271252,10.09613 L 8.1427502,10.0805 C 8.2239922,10.04742 8.3059378,10.01176 8.3810319,9.9750307 9.5082167,8.8763611 10.574187,8.6840479 11.994313,8.7953428 c 0.781587,0 1.226582,-0.2030038 2,-0.5507812 1.186546,0.4960506 1.695811,1.2706931 2,2.5507814 0.114559,0.962125 -1.431114,3.269495 -2,3.998047 -6.8e-5,1.1e-5 -0.0039,0.002 -0.0039,0.002 1.2e-5,0 0.0039,-10e-6 0.0039,0 0.01173,0.0016 1.717869,-0.760302 2.398438,-1.40625 -0.485567,3.754421 -3.186124,5.881944 -4.398438,6.40625 0.936965,0.06306 2.220246,-0.52096 3.103516,-1.060547 -0.403265,0.43212 -0.834566,0.89984 -1.103516,1.060547 1.054554,-0.295287 2.053274,-0.403114 2.71875,-0.888672 -2.49e-4,0 0.539372,-0.294021 1.103516,-0.9375 0.07505,-0.08561 0.203986,-0.203291 0.28125,-0.300781 0.04803,-0.06061 0.09368,-0.122701 0.140625,-0.183594 0.0083,-0.01001 0.01744,-0.02109 0.02539,-0.03125 1.187377,-1.452539 1.765529,-3.257976 1.722657,-4.894531 C 19.994834,10.57514 19.188693,8.8537837 17.83611,7.4301034 16.857937,6.4005143 15.746727,5.7690328 14.746266,5.4281503 13.710946,5.1308501 12.492782,4.980028 11.457204,5.0375253 c -0.103696,0.00127 -0.391212,0.00968 -0.783203,0.042969 -0.04584,-0.086358 0.0112,-0.4068056 0.123046,-0.4863281 -0.245161,0.02295 -0.471026,0.3418588 -0.679687,0.5625 -0.03512,0.00685 -0.07117,0.013798 -0.103516,0.021484 C 10.201774,4.8530157 10.393386,4.4872576 10.61736,4.1957284 9.9234998,4.3252483 9.6207001,4.8707809 9.2814225,5.3734628 9.1835047,5.4056973 9.0884546,5.4448302 8.99236,5.4808847 9.2440284,4.7546971 9.7172811,4.3572467 10.396657,3.7953378 Z m -1.7988283,4 c 0.1941057,-0.00375 0.3693938,0.029297 0.3710938,0.029297 0.0033,0 0.087553,0.3400574 -0.072266,0.6308593 C 8.7368383,8.7474056 8.3646679,8.8642056 8.1583756,8.7543222 7.947551,8.6444396 7.9482996,8.2767029 8.1115006,7.9847909 8.1902764,7.838835 8.4037231,7.7990837 8.5978287,7.7953378 Z"/>
</svg>

<svg xmlns="http://www.w3.org/2000/svg" width="24" height="24" version="1.1">
 <defs>
  <style id="current-color-scheme" type="text/css">
   .ColorScheme-Text { color:#444444; } .ColorScheme-Highlight { color:#4285f4; }
  </style>
 </defs>
 <path style="fill:currentColor" class="ColorScheme-Text" d="M 10.397,3.795 C 9.1919,3.8272 8.5371,4.9218 8.0295,5.9181 7.8443,6.0115 7.6561,6.0938 7.4728,6.1954 6.4781,6.8642 5.6626,7.7916 5.0334,8.8048 4.4799,9.7817 4.1444,10.867 4.0197,11.981 3.9456,13.11 4.075,14.261 4.5002,15.317 4.8297,16.245 5.4099,17.265 6.1525,17.9 7.1384,18.558 7.9224,19.034 8.9982,18.988 6.7584,17.196 5.5766,15.048 5.2033,12.52 5.1915,12.331 5.1683,12.126 5.2365,12.176 5.4918,12.581 5.5512,12.566 5.9943,12.795 5.6123,11.366 6.1224,9.7746 6.7463,8.6134 6.8243,8.524 6.9091,8.4383 6.9924,8.3517 L 7.0314,8.3575 C 7.0454,8.5808 7.0719,8.8056 7.0978,9.0216 7.093,9.1257 7.1594,9.3034 7.1799,9.4181 7.1645,9.4583 7.0811,9.6989 7.049,9.9997 7.0297,10.12 7.029,10.237 7.0471,10.352 7.0503,10.375 7.0521,10.396 7.0568,10.418 7.0665,10.459 7.0775,10.5 7.0939,10.539 7.1287,10.633 7.175,10.722 7.2502,10.795 7.278,10.67 7.3348,10.569 7.4123,10.485 7.4316,10.464 7.4609,10.451 7.4826,10.432 7.5528,10.373 7.6262,10.315 7.7053,10.272 7.7208,10.263 7.7211,10.266 7.7365,10.258 7.9329,10.158 8.1261,10.096 8.1271,10.096 L 8.1428,10.081 C 8.224,10.047 8.3059,10.012 8.381,9.9747 9.5082,8.8761 10.574,8.6837 11.994,8.795 12.776,8.795 13.221,8.592 13.994,8.2443 15.181,8.7403 15.69,9.515 15.994,10.795 16.109,11.757 14.563,14.065 13.994,14.793 13.994,14.793 13.99,14.795 13.99,14.795 13.99,14.795 13.994,14.795 13.994,14.795 14.006,14.797 15.712,14.035 16.393,13.389 15.907,17.144 13.207,19.471 11.994,19.995 12.931,20.058 14.215,19.474 15.098,18.935 14.695,19.367 14.263,19.835 13.994,19.995 15.049,19.7 16.048,19.592 16.713,19.107 16.713,19.107 17.252,18.613 17.817,17.969 17.892,17.884 18.021,17.766 18.098,17.668 18.146,17.608 18.192,17.546 18.238,17.485 18.247,17.475 18.256,17.464 18.264,17.454 19.451,16.001 20.029,14.196 19.987,12.559 19.995,10.575 19.189,8.8535 17.836,7.4298 16.858,6.4002 15.747,5.7687 14.746,5.4279 13.711,5.1306 12.493,4.9797 11.457,5.0372 11.354,5.0385 11.066,5.0469 10.674,5.0802 10.628,4.9938 10.685,4.6734 10.797,4.5939 10.552,4.6168 10.326,4.9357 10.117,5.1564 10.082,5.1632 10.046,5.1702 10.014,5.1779 10.202,4.8527 10.393,4.487 10.617,4.1954 9.9235,4.3249 9.6207,4.8705 9.2814,5.3732 9.1835,5.4054 9.0885,5.4445 8.9924,5.4806 9.244,4.7544 9.7173,4.3569 10.397,3.795 Z M 8.5978,7.9952 C 8.7919,7.9915 8.9672,8.0245 8.9689,8.0245 8.9722,8.0245 9.0565,8.3646 8.8967,8.6554 8.7368,8.9473 8.3647,9.0641 8.1584,8.9542 7.9476,8.8443 7.9483,8.4766 8.1115,8.1847 8.1903,8.0387 8.4037,7.999 8.5978,7.9952 Z"/>
 <path style="opacity:0.3;fill:currentColor" class="ColorScheme-Text" d="M 13.818,9.311 C 13.251,9.5427 12.717,9.7954 11.994,9.7954 11.968,9.7957 11.942,9.7951 11.916,9.7935 10.624,9.6922 10.021,9.7725 9.0781,10.691 9.0023,10.765 8.9153,10.827 8.8203,10.873 8.7606,10.902 8.7041,10.924 8.6465,10.949 8.5809,10.99 8.5106,11.022 8.4375,11.047 L 9.9941,12.795 14.908,11.25 C 14.948,11.102 14.986,10.934 14.992,10.949 14.765,10.027 14.495,9.6471 13.818,9.311 Z M 8.1445,11.217 C 7.9358,11.656 7.4448,11.892 6.9707,11.754 6.9707,12.017 6.8982,12.302 6.9609,12.537 7.0636,12.927 6.9219,13.341 6.6016,13.586 6.7931,14.255 7.0397,14.896 7.3633,15.508 L 13.568,17.41 C 13.606,17.365 13.646,17.329 13.684,17.281 14.073,16.791 14.438,16.213 14.738,15.557 14.729,15.561 14.714,15.568 14.705,15.572 14.613,15.616 14.537,15.65 14.48,15.676 14.452,15.689 14.429,15.697 14.406,15.707 14.395,15.712 14.386,15.717 14.367,15.725 14.358,15.728 14.348,15.731 14.322,15.74 14.309,15.745 14.256,15.76 14.256,15.76 14.256,15.76 14.166,15.781 14.166,15.781 14.166,15.781 13.908,15.787 13.877,15.787 13.103,15.695 12.727,14.792 13.207,14.178 13.21,14.174 13.218,14.162 13.221,14.158 13.464,13.845 13.972,13.116 14.379,12.393 14.491,12.192 14.56,12.02 14.65,11.832 L 9.9941,13.295 Z"/>
</svg>
